app/img/shield.svg

<svg width="92" height="92" viewBox="0 0 92 92" fill="none" xmlns="http://www.w3.org/2000/svg">
<rect width="92" height="92" rx="24" fill="white"/>
<path d="M55.2317 51.6961C57.5839 51.6961 59.9096 52.2844 61.9577 53.3974C62.3296 53.5979 62.6709 53.8368 63.0194 54.0667C66.3807 47.4869 68.1545 40.5278 68.1545 33.7388C68.1545 33.3573 68.1545 32.9634 68.1423 32.5696C68.1177 32.0158 67.7238 31.5358 67.1699 31.4127C59.7361 29.7881 53.0038 25.7634 47.7115 19.7819L46.9238 18.8834C46.6899 18.6127 46.3577 18.465 46.0007 18.465C45.6192 18.4158 45.3238 18.6004 45.0899 18.8589L43.8838 20.1881C38.8623 25.7142 32.5361 29.5296 25.5946 31.2281L24.7946 31.425C24.253 31.5481 23.8715 32.0281 23.8592 32.5819C23.4161 49.8865 33.6315 62.3296 38.0377 66.8834C39.2306 68.1082 40.5606 69.3256 41.8253 70.3319C41.3509 68.9011 41.0779 67.3957 41.0779 65.8499C41.0779 58.0452 47.427 51.6961 55.2317 51.6961Z" fill="url(#paint0_linear_22728_12640)"/>
<path d="M60.7822 55.5593C59.0837 54.6363 57.1637 54.1562 55.2314 54.1562C48.7822 54.1562 43.5391 59.3993 43.5391 65.8486C43.5391 68.027 44.1299 70.1562 45.2622 71.9778C47.416 75.4609 51.133 77.5409 55.2314 77.5409C61.6683 77.5409 66.9237 72.2978 66.9237 65.8486C66.9237 61.5409 64.5729 57.6024 60.7822 55.5593ZM61.2196 64.2918L52.0747 71.4084L48.9527 66.5249C48.5862 65.9522 48.7538 65.1914 49.3265 64.8254C49.8999 64.4588 50.6613 64.6277 51.0261 65.1992L52.6937 67.8074L59.7076 62.3495C60.243 61.9318 61.0171 62.0273 61.4347 62.5646C61.8524 63.1013 61.7556 63.8747 61.2196 64.2918Z" fill="url(#paint1_linear_22728_12640)"/>
<defs>
<linearGradient id="paint0_linear_22728_12640" x1="45.9999" y1="18.457" x2="45.9999" y2="70.3319" gradientUnits="userSpaceOnUse">
<stop stop-color="#EF8080"/>
<stop offset="1" stop-color="#F0145A"/>
</linearGradient>
<linearGradient id="paint1_linear_22728_12640" x1="55.2314" y1="54.1562" x2="55.2314" y2="77.5409" gradientUnits="userSpaceOnUse">
<stop stop-color="#EF8080"/>
<stop offset="1" stop-color="#F0145A"/>
</linearGradient>
</defs>
</svg>

<svg xmlns="http://www.w3.org/2000/svg" width="92" height="92" fill="none"><rect width="92" height="92" fill="#fff" rx="24"/><path fill="url(#a)" d="M55.232 51.696c2.352 0 4.678.588 6.726 1.701.372.2.713.44 1.061.67 3.362-6.58 5.136-13.54 5.136-20.328 0-.382 0-.776-.013-1.17a1.244 1.244 0 0 0-.972-1.156c-7.434-1.625-14.166-5.65-19.459-11.631l-.787-.899a1.207 1.207 0 0 0-.923-.418c-.382-.05-.677.135-.911.394l-1.206 1.33c-5.022 5.525-11.348 9.34-18.29 11.04l-.8.196a1.21 1.21 0 0 0-.935 1.157c-.443 17.304 9.773 29.748 14.179 34.301a41.698 41.698 0 0 0 3.787 3.449 14.227 14.227 0 0 1-.747-4.482c0-7.805 6.349-14.154 14.154-14.154Z"/><path fill="url(#b)" d="M60.782 55.56a11.654 11.654 0 0 0-5.55-1.404c-6.45 0-11.693 5.243-11.693 11.693 0 2.178.59 4.307 1.723 6.129 2.154 3.483 5.871 5.563 9.97 5.563 6.436 0 11.692-5.243 11.692-11.692 0-4.308-2.351-8.247-6.142-10.29Zm.438 8.732-9.145 7.116-3.122-4.883a1.23 1.23 0 1 1 2.073-1.326l1.668 2.608 7.014-5.458a1.23 1.23 0 1 1 1.512 1.943Z"/><defs><linearGradient id="a" x1="46" x2="46" y1="18.457" y2="70.332" gradientUnits="userSpaceOnUse"><stop stop-color="#EF8080"/><stop offset="1" stop-color="#F0145A"/></linearGradient><linearGradient id="b" x1="55.231" x2="55.231" y1="54.156" y2="77.541" gradientUnits="userSpaceOnUse"><stop stop-color="#EF8080"/><stop offset="1" stop-color="#F0145A"/></linearGradient></defs></svg>
